svgs/sharp-regular/album-circle-plus.svg

<svg xmlns="http://www.w3.org/2000/svg" viewBox="0 0 576 512"><!--! Font Awesome Pro 6.6.0 by @fontawesome - https://fontawesome.com License - https://fontawesome.com/license (Commercial License) Copyright 2024 Fonticons, Inc. --><path d="M48 80l352 0 0 114.9c10.4-1.9 21.1-2.9 32-2.9c5.4 0 10.7 .2 16 .7L448 80l0-48-48 0L48 32 0 32 0 80 0 432l0 48 48 0 248.2 0c-11.8-14.3-21.4-30.5-28.2-48L48 432 48 80zm176 32c-79.5 0-144 64.5-144 144s64.5 144 144 144c11.8 0 23.2-1.4 34.2-4.1c-1.4-9.1-2.2-18.4-2.2-27.9c0-71.4 42.5-132.9 103.6-160.5C339.7 151.8 286.5 112 224 112zM192 256a32 32 0 1 1 64 0 32 32 0 1 1 -64 0zM432 512a144 144 0 1 0 0-288 144 144 0 1 0 0 288zm16-208l0 48 48 0 16 0 0 32-16 0-48 0 0 48 0 16-32 0 0-16 0-48-48 0-16 0 0-32 16 0 48 0 0-48 0-16 32 0 0 16z"/></svg>

<svg xmlns="http://www.w3.org/2000/svg" viewBox="0 0 576 512"><!--! Font Awesome Pro 6.5.2 by @fontawesome - https://fontawesome.com License - https://fontawesome.com/license (Commercial License) Copyright 2024 Fonticons, Inc. --><path d="M48 80H400V194.9c10.4-1.9 21.1-2.9 32-2.9c5.4 0 10.7 .2 16 .7V80 32H400 48 0V80 432v48H48 296.2c-11.8-14.3-21.4-30.5-28.2-48H48V80zm176 32c-79.5 0-144 64.5-144 144s64.5 144 144 144c11.8 0 23.2-1.4 34.2-4.1c-1.4-9.1-2.2-18.4-2.2-27.9c0-71.4 42.5-132.9 103.6-160.5C339.7 151.8 286.5 112 224 112zM192 256a32 32 0 1 1 64 0 32 32 0 1 1 -64 0zM432 512a144 144 0 1 0 0-288 144 144 0 1 0 0 288zm16-208v48h48 16v32H496 448v48 16H416V432 384H368 352V352h16 48V304 288h32v16z"/></svg>
